X:688
T:Planxty O'Daly
C:O'Carolan
B:O'Neill's 688
Z: 1997 by John Chambers <jc@trillian.mit.edu>
N:"Spirited"
N:The turn in bar 3 is above the dot in O'Neill.
M:6/8
L:1/8
K:Gm
(A/G/) \
|FDD FDC|DGG G2A|~B3 GBd|dcAG F23c/d/e/|
|fFF AFF|cAG FGA/c/|d2edc dcA/d/|cAF G2||
((3d/=e/^f/) \
|gfg G2B/d/|gfg Gcd/e/|fef F2A/c/|fcA F2 G/A/|
|cBAB B,2B|dcBc A2 B/c/|d2edc dcA/d/|cAF G2|]
